svgs/light/camera-web.svg

<svg xmlns="http://www.w3.org/2000/svg" viewBox="0 0 448 512"><!-- Font Awesome Pro 6.0.0-alpha2 by @fontawesome - https://fontawesome.com License - https://fontawesome.com/license (Commercial License) --><path d="M390.676 437.758C387.633 434.109 383.129 432 378.379 432C364.805 432 357.391 447.832 366.08 458.258L384.203 480H64.316L82.439 458.258C91.131 447.832 83.717 432 70.143 432H70.141C65.391 432 60.887 434.109 57.844 437.758L40.705 458.32C32.811 467.791 29.992 480.975 34.773 492.34C39.855 504.414 51.314 512 64.316 512H382.709C395.049 512 406.979 505.697 412.629 494.729C418.621 483.096 417.098 469.479 408.797 459.5L390.676 437.758ZM224 448C347.713 448 448 347.711 448 224C448 100.287 347.713 0 224 0C100.289 0 0 100.287 0 224C0 347.711 100.289 448 224 448ZM224 32C329.869 32 416 118.131 416 224S329.869 416 224 416S32 329.869 32 224S118.131 32 224 32ZM224 368C303.406 368 368 303.406 368 224S303.406 80 224 80S80 144.594 80 224S144.594 368 224 368ZM224 112C285.75 112 336 162.25 336 224S285.75 336 224 336S112 285.75 112 224S162.25 112 224 112Z"/></svg>

<svg xmlns="http://www.w3.org/2000/svg" viewBox="0 0 448 512"><!--! Font Awesome Pro 6.3.0 by @fontawesome - https://fontawesome.com License - https://fontawesome.com/license (Commercial License) Copyright 2023 Fonticons, Inc. --><path d="M390.7 437.8C387.6 434.1 383.1 432 378.4 432c-13.57 0-20.99 15.83-12.3 26.26L384.2 480h-319.9l18.12-21.74C91.13 447.8 83.72 432 70.14 432c-4.75 0-9.256 2.109-12.3 5.758l-17.14 20.56c-7.895 9.471-10.71 22.65-5.932 34.02c5.082 12.07 16.33 19.66 29.33 19.66L382.7 512c12.34 0 24.27-6.303 29.92-17.27c5.992-11.63 4.469-25.25-3.832-35.23L390.7 437.8zM224 448c123.7 0 224-100.3 224-223.1c0-123.7-100.3-224-224-224c-123.7 0-224 100.3-224 224C0 347.7 100.3 448 224 448zM224 32c105.9 0 192 86.13 192 192s-86.13 192-192 192s-192-86.13-192-192S118.1 32 224 32zM224 368c79.41 0 144-64.59 144-144S303.4 80 224 80S80 144.6 80 224S144.6 368 224 368zM224 112c61.75 0 112 50.25 112 112s-50.25 112-112 112S112 285.8 112 224S162.3 112 224 112z"/></svg>
